wp-content/themes/lnob/assets/images/svgs/logos/forumciv-logo.svg

<svg fill="none" height="32" viewBox="0 0 227 32" width="227" xmlns="http://www.w3.org/2000/svg"><g fill="#111517"><path d="m0 .568359h20.0883v6.828821h-11.93898v5.88002h10.23338v6.8282h-10.23338v11.2866h-8.14932z"/><path d="m41.7878 22.5014c1.0728-1.6279 1.6105-3.8487 1.6105-6.6629 0-2.782-.5291-4.9478-1.5872-6.4968-1.0585-1.54806-2.5189-2.32336-4.3823-2.32336-1.8641 0-3.3245.7753-4.3826 2.32336-1.0585 1.549-1.5873 3.7148-1.5873 6.4968 0 2.8142.5371 5.035 1.6112 6.6629 1.0735 1.6286 2.5262 2.442 4.3587 2.442 1.8314 0 3.2845-.8134 4.359-2.442zm-11.8688 7.5393c-2.1639-1.2799-3.8373-3.1364-5.0218-5.5716-1.1843-2.4339-1.7766-5.3114-1.7766-8.6306 0-3.3198.5923-6.17211 1.7766-8.5597 1.1845-2.386 2.8579-4.19643 5.0218-5.42938 2.1635-1.232947 4.6668-1.84942 7.5098-1.84942 2.8426 0 5.3453.624463 7.5094 1.87275 2.1629 1.24988 3.8376 3.05872 5.0219 5.43002 1.1845 2.37065 1.7768 5.21593 1.7768 8.53573 0 3.3192-.5923 6.1967-1.7768 8.6306-1.1843 2.4352-2.859 4.2917-5.0219 5.5716-2.1641 1.2809-4.6668 1.9207-7.5094 1.9207-2.843 0-5.3463-.6398-7.5098-1.9207z"/><path d="m64.4334 14.605h2.9375c1.6109 0 2.8344-.3477 3.6722-1.0434.8362-.6948 1.2552-1.7066 1.2552-3.0348 0-1.29617-.4027-2.20507-1.2083-2.72662-.8052-.52188-2.0453-.78234-3.7191-.78234h-2.9375zm8.4332 16.787-5.306-10.3381h-3.1272v10.3381h-8.149v-30.823641h11.6552c3.6955 0 6.6719.766681 8.9309 2.300351 2.2578 1.53335 3.3874 4.08585 3.3874 7.65809 0 2.1179-.4428 3.9207-1.3267 5.4061-.8844 1.4867-2.1009 2.6554-3.6482 3.5093l6.6806 11.9498z"/><path d="m87.1983 28.1674c-2.1009-2.5288-3.1504-6.4168-3.1504-11.6653v-15.933741h8.149v16.881941c0 2.7193.3624 4.647 1.0894 5.7857.7264 1.138 1.9106 1.7069 3.5534 1.7069 1.6421 0 2.8427-.5769 3.6003-1.7309.758-1.154 1.138-3.074 1.138-5.7617v-16.881941h7.865v15.933741c0 5.2798-1.027 9.1758-3.08 11.6893-2.054 2.5129-5.228 3.7695-9.5233 3.7695-4.3277 0-7.5414-1.2636-9.6414-3.7935z"/><path d="m114.18.568359h8.718l4.643 12.613941c.22.6327.521 1.6122.9 2.9401l.711 2.4659h.189l.711-2.4659c.379-1.3279.678-2.3074.9-2.9401l4.454-12.613941h8.717v30.823641h-7.391v-9.1045c0-1.1694.095-2.6801.284-4.5288.19-1.8498.395-3.564.616-5.1453l.142-1.3282h-.189l-2.559 7.398-3.79 10.1953h-4.359l-3.79-10.1953-2.463-7.398h-.19l.142 1.3282c.221 1.5813.426 3.2955.616 5.1453.19 1.8487.284 3.3594.284 4.5288v9.1045h-7.296z"/></g><path d="m172.395 6.76085c-1.67-.83603-3.999-1.23167-6.417-1.23167-5.58 0-9.887 4.31052-9.887 10.46882 0 6.817 5.054 10.4673 10.24 10.4673 2.416 0 4.482-.3953 6.283-1.3189l.747 1.9788c-2.24 1.0563-4.614 1.4075-6.987 1.4075-6.24 0-12.7-4.2658-12.7-12.5347 0-8.26914 6.328-12.53619 12.612-12.53619 2.286 0 4.659.44038 6.856 1.36397zm1.23-3.16642c-2.197-.96801-4.79-1.45186-7.47-1.45186-7.822 0-14.063 5.3661-14.063 13.85543 0 8.4885 6.372 13.8542 14.15 13.8542 2.505 0 5.318-.4394 7.603-1.4956l.703 1.8478c-2.461 1.2758-5.361 1.7152-8.349 1.7152-8.833 0-16.523-6.0692-16.523-15.9216 0-9.58869 7.514-15.9228047 16.171-15.9228047 3.076 0 5.844.4838467 8.481 1.6717347z" fill="#ffcb27"/><path d="m184.653 31.395v-30.788555h2.373v30.788555zm-1.582 0h-2.373v-30.788555h2.373z" fill="#ffcb27"/><path d="m196.077.606445h2.593l8.393 21.815655 8.394-21.815655h2.592l-10.986 27.137955zm8.438 30.788555-12.437-30.788555h2.373l11.601 28.545355h2.022l11.601-28.545355h2.373l-12.436 30.788555z" fill="#ffcb27"/><path d="m222.366 26.3829c.755 0 1.079.4324 1.079 1.2425 0 .8641-.324 1.2416-1.079 1.2416-.756 0-1.079-.4321-1.079-1.2416 0-.8101.323-1.2425 1.079-1.2425zm0-1.1876c-1.511 0-2.374.7558-2.374 2.4301 0 1.6736.863 2.4304 2.374 2.4304s2.374-.7568 2.374-2.4304c0-1.6743-.863-2.4301-2.374-2.4301zm-4.317 2.4301c0-2.9708 1.403-4.3754 4.317-4.3754s4.317 1.4046 4.317 4.3754c0 2.9699-1.403 4.3744-4.317 4.3744s-4.317-1.4045-4.317-4.3744z" fill="#ffcb27"/></svg>

<svg width="227" height="32" viewBox="0 0 227 32" fill="none" xmlns="http://www.w3.org/2000/svg">
<path d="M0 0.568359H20.0883V7.39718H8.14932V13.2772H18.3827V20.1054H8.14932V31.392H0V0.568359Z" fill="#111517"/>
<path d="M41.7878 22.5014C42.8606 20.8735 43.3983 18.6527 43.3983 15.8385C43.3983 13.0565 42.8692 10.8907 41.8111 9.3417C40.7526 7.79364 39.2922 7.01834 37.4288 7.01834C35.5647 7.01834 34.1043 7.79364 33.0462 9.3417C31.9877 10.8907 31.4589 13.0565 31.4589 15.8385C31.4589 18.6527 31.996 20.8735 33.0701 22.5014C34.1436 24.13 35.5963 24.9434 37.4288 24.9434C39.2602 24.9434 40.7133 24.13 41.7878 22.5014ZM29.919 30.0407C27.7551 28.7608 26.0817 26.9043 24.8972 24.4691C23.7129 22.0352 23.1206 19.1577 23.1206 15.8385C23.1206 12.5187 23.7129 9.66639 24.8972 7.2788C26.0817 4.8928 27.7551 3.08237 29.919 1.84942C32.0825 0.616473 34.5858 0 37.4288 0C40.2714 0 42.7741 0.624463 44.9382 1.87275C47.1011 3.12263 48.7758 4.93147 49.9601 7.30277C51.1446 9.67342 51.7369 12.5187 51.7369 15.8385C51.7369 19.1577 51.1446 22.0352 49.9601 24.4691C48.7758 26.9043 47.1011 28.7608 44.9382 30.0407C42.7741 31.3216 40.2714 31.9614 37.4288 31.9614C34.5858 31.9614 32.0825 31.3216 29.919 30.0407Z" fill="#111517"/>
<path d="M64.4334 14.605H67.3709C68.9818 14.605 70.2053 14.2573 71.0431 13.5616C71.8793 12.8668 72.2983 11.855 72.2983 10.5268C72.2983 9.23063 71.8956 8.32173 71.09 7.80018C70.2848 7.2783 69.0447 7.01784 67.3709 7.01784H64.4334V14.605ZM72.8666 31.392L67.5606 21.0539H64.4334V31.392H56.2844V0.568359H67.9396C71.6351 0.568359 74.6115 1.33504 76.8705 2.86871C79.1283 4.40206 80.2579 6.95456 80.2579 10.5268C80.2579 12.6447 79.8151 14.4475 78.9312 15.9329C78.0468 17.4196 76.8303 18.5883 75.283 19.4422L81.9636 31.392H72.8666Z" fill="#111517"/>
<path d="M87.1983 28.1674C85.0974 25.6386 84.0479 21.7506 84.0479 16.5021V0.568359H92.1969V17.4503C92.1969 20.1696 92.5593 22.0973 93.2863 23.236C94.0127 24.374 95.1969 24.9429 96.8397 24.9429C98.4818 24.9429 99.6824 24.366 100.44 23.212C101.198 22.058 101.578 20.138 101.578 17.4503V0.568359H109.443V16.5021C109.443 21.7819 108.416 25.6779 106.363 28.1914C104.309 30.7043 101.135 31.9609 96.8397 31.9609C92.512 31.9609 89.2983 30.6973 87.1983 28.1674Z" fill="#111517"/>
<path d="M114.18 0.568359H122.898L127.541 13.1823C127.761 13.815 128.062 14.7945 128.441 16.1224L129.152 18.5883H129.341L130.052 16.1224C130.431 14.7945 130.73 13.815 130.952 13.1823L135.406 0.568359H144.123V31.392H136.732V22.2875C136.732 21.1181 136.827 19.6074 137.016 17.7587C137.206 15.9089 137.411 14.1947 137.632 12.6134L137.774 11.2852H137.585L135.026 18.6832L131.236 28.8785H126.877L123.087 18.6832L120.624 11.2852H120.434L120.576 12.6134C120.797 14.1947 121.002 15.9089 121.192 17.7587C121.382 19.6074 121.476 21.1181 121.476 22.2875V31.392H114.18V0.568359Z" fill="#111517"/>
<path d="M172.395 6.76085C170.725 5.92482 168.396 5.52918 165.978 5.52918C160.398 5.52918 156.091 9.8397 156.091 15.998C156.091 22.815 161.145 26.4653 166.331 26.4653C168.747 26.4653 170.813 26.07 172.614 25.1464L173.361 27.1252C171.121 28.1815 168.747 28.5327 166.374 28.5327C160.134 28.5327 153.674 24.2669 153.674 15.998C153.674 7.72886 160.002 3.46181 166.286 3.46181C168.572 3.46181 170.945 3.90219 173.142 4.82578L172.395 6.76085ZM173.625 3.59443C171.428 2.62642 168.835 2.14257 166.155 2.14257C158.333 2.14257 152.092 7.50867 152.092 15.998C152.092 24.4865 158.464 29.8522 166.242 29.8522C168.747 29.8522 171.56 29.4128 173.845 28.3566L174.548 30.2044C172.087 31.4802 169.187 31.9196 166.199 31.9196C157.366 31.9196 149.676 25.8504 149.676 15.998C149.676 6.40931 157.19 0.0751953 165.847 0.0751953C168.923 0.0751953 171.691 0.559042 174.328 1.74693L173.625 3.59443Z" fill="#FFCB27"/>
<path d="M184.653 31.395V0.606445H187.026V31.395H184.653ZM183.071 31.395H180.698V0.606445H183.071V31.395Z" fill="#FFCB27"/>
<path d="M196.077 0.606445H198.67L207.063 22.4221L215.457 0.606445H218.049L207.063 27.7444L196.077 0.606445ZM204.515 31.395L192.078 0.606445H194.451L206.052 29.1518H208.074L219.675 0.606445H222.048L209.612 31.395H204.515Z" fill="#FFCB27"/>
<path d="M222.366 26.3829C223.121 26.3829 223.445 26.8153 223.445 27.6254C223.445 28.4895 223.121 28.867 222.366 28.867C221.61 28.867 221.287 28.4349 221.287 27.6254C221.287 26.8153 221.61 26.3829 222.366 26.3829ZM222.366 25.1953C220.855 25.1953 219.992 25.9511 219.992 27.6254C219.992 29.299 220.855 30.0558 222.366 30.0558C223.877 30.0558 224.74 29.299 224.74 27.6254C224.74 25.9511 223.877 25.1953 222.366 25.1953ZM218.049 27.6254C218.049 24.6546 219.452 23.25 222.366 23.25C225.28 23.25 226.683 24.6546 226.683 27.6254C226.683 30.5953 225.28 31.9998 222.366 31.9998C219.452 31.9998 218.049 30.5953 218.049 27.6254Z" fill="#FFCB27"/>
</svg>
